X:1
T:Title
%%score { ( 1 4 ) | ( 2 3 ) }
L:1/8
M:4/4
K:Bb
V:1 treble nm="Grand Piano"
V:4 treble 
V:2 bass 
V:3 bass 
V:1
 z4 z2[Q:1/4=100] [B,D][CE] | [DF]2 [EF]2 F2 GA | [FB]2 [EG]2 [DF]2 [DB][Ec] | %3
 [Fd]2 [Fd][DB] c2 A2 | [DB]6 [B,D][CE] | [DF]2 [EF]2 F2 GA | [FB]2 [EG]2 [DF]2 [DB][Ec] | %7
 [Fd]2 [Fd][DB] c2 A2 |[M:3/4] [DB]6 |[M:1/4] [DF]2 |[M:4/4] [Ec]6 z2 | %11
 [DB]6[K:bass][K:treble] z2 | [B,EG]2 [B,EG][B,EG] [EGB]2 [B,EG]2 | [EG]2 [DF]4 [DF]2 | [Ec]6 z2 | %15
 [DB]6[K:bass][K:treble] z2 | [B,EG]2 [CEc][Fd] [Ge]2 [EA]2 | [Ec]4 [DB]2 z2 |] %18
V:2
 z4 z2 [B,,F,][B,,F,] | z4 z2 E2 | [D,B,]2 [E,B,]2 [B,,B,]2 [B,,B,][B,,B,] | %3
 [B,,B,]2 [B,,B,][B,,F,] [F,A,E]2 [F,E]2 | [B,,F,]6 [B,,F,]2 | z4 z2 E2 | %6
 [D,B,]2 [E,B,]2 [B,,B,]2 [B,,B,]2 | [B,,B,]2 [B,,B,][B,,F,] [F,A,E]2 [F,E]2 |[M:3/4] [B,,F,]6 | %9
[M:1/4] [B,,B,]2 |[M:4/4] [F,A,]2 F,F, F,2 [F,A,F][F,A,E] | [B,,F,]2 B,,B,, B,,2 B,,2 | %12
 E,2 E,E, E,2 E,2 | [B,,B,]2 [B,,B,]2 [B,,B,]2 [B,,B,]2 | [F,A,]2 F,F, F,2 [F,A,F][F,A,E] | %15
 [B,,F,]2 B,,B,, B,,2 B,,2 | E,2 E,[D,B,] [C,C]2 [F,C]2 | [F,A,]4 [B,,B,]2 z2 |] %18
V:3
 x8 | [B,,B,]2 [C,A,]2 [D,B,]2 [E,B,][C,C] | x8 | x8 | x8 | [B,,B,]2 [C,A,]2 [D,B,]2 [E,B,][C,C] | %6
 x8 | x8 |[M:3/4] x6 |[M:1/4] x2 |[M:4/4] x8 | x8 | x8 | x8 | x8 | x8 | x8 | x8 |] %18
V:4
 x8 | x8 | x8 | x8 | x8 | x8 | x8 | x8 |[M:3/4] x6 |[M:1/4] x2 |[M:4/4] z2 A,A, A,2 dc | %11
 z2[K:bass] F,F, F,2[K:treble] [B,DB]2 | x8 | x8 | z2 A,A, A,2 dc | %15
 z2[K:bass] F,F, F,2[K:treble] [B,DB]2 | x8 | x8 |] %18

